X:14479
T:ROND DE SAUTRON Un jeune capitaine
Z: Yves BELOTTEAU
M:4/4
L:1/8
Q:1/4=75
K:C 
|:DGGG G2D2|DBBB B2G2|ABc3/2B/2 A2A2:|
|:Bcd2 d3/2e/2dB|GAB2 B3/2d/2cB|AGc3/2B/2 A2A2:|
